Numix-GalliumOS/24/actions/stock_todo.svg

<?xml version="1.0" encoding="UTF-8" standalone="no"?>
<svg
   xmlns:dc="http://purl.org/dc/elements/1.1/"
   xmlns:cc="http://creativecommons.org/ns#"
   xmlns:rdf="http://www.w3.org/1999/02/22-rdf-syntax-ns#"
   xmlns:svg="http://www.w3.org/2000/svg"
   xmlns="http://www.w3.org/2000/svg"
   xmlns:sodipodi="http://sodipodi.sourceforge.net/DTD/sodipodi-0.dtd"
   xmlns:inkscape="http://www.inkscape.org/namespaces/inkscape"
   viewBox="0 0 24 24"
   id="svg2"
   version="1.1"
   inkscape:version="0.91 r13725"
   sodipodi:docname="stock_todo.svg"
   width="24"
   height="24">
  <metadata
     id="metadata98">
    <rdf:RDF>
      <cc:Work
         rdf:about="">
        <dc:format>image/svg+xml</dc:format>
        <dc:type
           rdf:resource="http://purl.org/dc/dcmitype/StillImage" />
        <dc:title></dc:title>
      </cc:Work>
    </rdf:RDF>
  </metadata>
  <sodipodi:namedview
     pagecolor="#ffffff"
     bordercolor="#666666"
     borderopacity="1"
     objecttolerance="10"
     gridtolerance="10"
     guidetolerance="10"
     inkscape:pageopacity="0"
     inkscape:pageshadow="2"
     inkscape:window-width="1262"
     inkscape:window-height="482"
     id="namedview96"
     showgrid="true"
     inkscape:zoom="9.8333338"
     inkscape:cx="-3.1066054"
     inkscape:cy="11.615885"
     inkscape:window-x="8"
     inkscape:window-y="532"
     inkscape:window-maximized="0"
     inkscape:current-layer="svg2"
     inkscape:object-nodes="true"
     inkscape:snap-smooth-nodes="true">
    <inkscape:grid
       type="xygrid"
       id="grid4360" />
  </sodipodi:namedview>
  <defs
     id="defs4" />
  <path
     sodipodi:nodetypes="cssssssc"
     id="path3893"
     style="fill:#e6b07f;fill-opacity:1;fill-rule:evenodd;stroke:none"
     d="m 18,5 c 1,0 1,0 1,1 l 0,14 c 0,1 0,1 -1,1 L 6,21 C 5,21 5,21 5,20 L 5,6 C 5,5 5,5 6,5"
     inkscape:connector-curvature="0" />
  <path
     sodipodi:nodetypes="cccc"
     id="path3895"
     style="fill:#ffffff;fill-opacity:1;fill-rule:nonzero;stroke:none"
     d="m 17,4.9999995 -10,0 L 7,19 17,19"
     inkscape:connector-curvature="0" />
  <path
     sodipodi:nodetypes="cccc"
     id="path3897"
     style="fill:#aaaaaa;fill-opacity:1;fill-rule:nonzero;stroke:none"
     d="m 8.0000004,3 0,3.0714283 7.9999996,0 L 16,3"
     inkscape:connector-curvature="0" />
  <g
     id="g34"
     transform="translate(1,-25)" />
  <path
     inkscape:connector-curvature="0"
     style="fill:#888888"
     d="M 11,12.981607 14.529091,9.4525152 16.041559,10.964983 11,16.006543 C 9.9658342,14.972379 9.00923,14.009647 7.9750642,12.975482 L 9.4875321,11.46914 Z"
     id="path3355" />
</svg>

<svg xmlns="http://www.w3.org/2000/svg" viewBox="0 0 24 24">
 <path d="m 18,5 c 1,0 1,0 1,1 l 0,14 c 0,1 0,1 -1,1 L 6,21 C 5,21 5,21 5,20 L 5,6 C 5,5 5,5 6,5" style="fill:#e6b07f;fill-opacity:1;stroke:none;fill-rule:evenodd"/>
 <path d="m 17 5 -10 0 l 0 14 10 0" style="fill:#fff;fill-opacity:1;stroke:none;fill-rule:nonzero"/>
 <path d="m 8 3 0 3.071 8 0 l 0 -3.071" style="fill:#aaa;fill-opacity:1;stroke:none;fill-rule:nonzero"/>
 <path d="m 11 12.982 3.529 -3.529 1.512 1.512 -5.04 5.04 c -1.034 -1.034 -1.991 -1.997 -3.02 -3.03 l 1.512 -1.506" style="fill:#888"/>
</svg>
